public/svgs/icons/speed.svg

<svg fill="none" height="72" viewBox="0 0 107 72" width="107" xmlns="http://www.w3.org/2000/svg"><g fill="#ed6a5e"><path d="m47.06 5.11011h-46.31c-.198912 0-.389678-.07902-.53033-.21967-.1406524-.14066-.21967-.33142-.21967-.53033 0-.19892.0790176-.38968.21967-.53033.140652-.14066.331418-.21967.53033-.21967h46.31c.1989 0 .3897.07901.5303.21967.1407.14065.2197.33141.2197.53033 0 .19891-.079.38967-.2197.53033-.1406.14065-.3314.21967-.5303.21967z"/><path d="m33.26 17.1201h-24.26c-.19891 0-.38968-.079-.53033-.2197-.14065-.1406-.21967-.3314-.21967-.5303s.07902-.3897.21967-.5303c.14065-.1407.33142-.2197.53033-.2197h24.26c.1989 0 .3897.079.5303.2197.1407.1406.2197.3314.2197.5303s-.079.3897-.2197.5303c-.1406.1407-.3314.2197-.5303.2197z"/><path d="m29.5797 29.1299h-12.36c-.1989 0-.3896-.079-.5303-.2197-.1407-.1406-.2197-.3314-.2197-.5303s.079-.3897.2197-.5303c.1407-.1407.3314-.2197.5303-.2197h12.36c.1989 0 .3897.079.5304.2197.1406.1406.2196.3314.2196.5303s-.079.3897-.2196.5303c-.1407.1407-.3315.2197-.5304.2197z"/></g><path d="m72.1598 32.2601-13.48-.11-6.59-11.29c-.0913-.1706-.1132-.37-.061-.5563.0521-.1864.1743-.3454.341-.4437.1689-.0948.3682-.1196.5551-.0692.187.0505.3467.1723.4449.3392l6.15 10.55 12.62.1c.1989 0 .3897.079.5304.2196.1406.1407.2196.3315.2196.5304s-.079.3897-.2196.5303c-.1407.1407-.3315.2197-.5304.2197z" fill="#bad8db"/><path d="m68.1998 58.89c-5.8056 1.8948-12.0621 1.9025-17.8723.022s-10.8757-5.5526-14.47-10.4898c-3.5944-4.9372-5.5329-10.8858-5.5377-16.9927-.0048-6.107 1.9244-12.0586 5.511-17.0014 3.5866-4.94283 8.6463-8.62291 14.4536-10.51254 5.8072-1.88963 12.0637-1.89173 17.8723-.00601 5.8085 1.88572 10.8707 5.5624 14.4606 10.50275 3.5899 4.9404 5.5231 10.8908 5.5225 16.9977v.83c.51 0 1 .08 1.5.15 0-.33 0-.65 0-1 .002-6.4356-2.0356-12.7063-5.8204-17.9114-3.7847-5.20506-9.1218-9.07669-15.2446-11.05876-6.1228-1.982077-12.7162-1.972604-18.8333.02706-6.117 1.99965-11.443 5.8866-15.2127 11.1025-3.7698 5.216-5.7894 11.4925-5.7689 17.9281.0206 6.4356 2.0803 12.699 5.8834 17.8908 3.803 5.1917 9.1536 9.0445 15.2834 11.005 6.1297 1.9606 12.7231 1.9279 18.8331-.0933-.2-.46-.39-.92-.56-1.39z" fill="#bad8db"/><path d="m59.2302 7.79004c-3.439-.00183-6.837.74734-9.9564 2.19516-3.1194 1.4479-5.8851 3.5594-8.1037 6.1871s-3.8366 5.7082-4.741 9.0262-1.0734 6.7934-.4951 10.1835 1.8899 6.613 3.8432 9.4435 4.5011 5.2003 7.4653 6.9439c2.9643 1.7435 6.2736 2.8188 9.6966 3.1505 3.423.3318 6.8772-.088 10.1211-1.2298 0-.52-.08-1-.08-1.57-2.4774.9316-5.1032 1.4059-7.75 1.4-4.3753 0-8.6524-1.2976-12.2902-3.7286-3.6379-2.431-6.473-5.8863-8.1469-9.9288-1.674-4.0425-2.1114-8.4906-1.2571-12.7817s2.962-8.2325 6.0566-11.3257c3.0945-3.0931 7.0368-5.1991 11.3284-6.05145 4.2915-.85237 8.7394-.4129 12.7811 1.26285 4.0417 1.6758 7.4957 4.5125 9.9251 8.1514 2.4294 3.639 3.725 7.9166 3.723 12.292 0 .53 0 1.06-.06 1.58.5-.15 1-.29 1.53-.4 0-.39 0-.78 0-1.18-.0079-6.2568-2.4948-12.2555-6.9163-16.6825-4.4214-4.4271-10.4169-6.92169-16.6737-6.93756z" fill="#bad8db"/><path d="m86.87 68.44c-3.2381 0-6.4035-.9603-9.0957-2.7595-2.6923-1.7992-4.7904-4.3565-6.0292-7.3483-1.2387-2.9918-1.5623-6.2837-.9298-9.4595.6324-3.1757 2.1925-6.0926 4.4829-8.3816 2.2904-2.2889 5.2082-3.8472 8.3843-4.4778 3.1761-.6305 6.4679-.3049 9.459.9357 2.991 1.2405 5.547 3.3403 7.3445 6.0336 1.798 2.6934 2.756 5.8593 2.754 9.0974-.005 4.3391-1.732 8.4987-4.8011 11.566-3.0691 3.0672-7.2298 4.7914-11.5689 4.794zm0-31.23c-2.941 0-5.816.8721-8.2613 2.5061-2.4454 1.6339-4.3513 3.9563-5.4768 6.6734-1.1255 2.7172-1.4199 5.707-.8462 8.5915.5738 2.8845 1.99 5.5341 4.0696 7.6137s4.7292 3.4958 7.6137 4.0696 5.8744.2793 8.5915-.8462 5.0395-3.0314 6.6735-5.4768c1.634-2.4453 2.506-5.3203 2.506-8.2613-.003-3.9429-1.57-7.7236-4.3582-10.5117-2.7881-2.7881-6.5688-4.3556-10.5118-4.3583z" fill="#ed6a5e"/><path d="m86.87 68.44c-3.2381 0-6.4035-.9603-9.0957-2.7595-2.6923-1.7992-4.7904-4.3565-6.0292-7.3483-1.2387-2.9918-1.5623-6.2837-.9298-9.4595.6324-3.1757 2.1925-6.0926 4.4829-8.3816 2.2904-2.2889 5.2082-3.8472 8.3843-4.4778 3.1761-.6305 6.4679-.3049 9.459.9357 2.991 1.2405 5.547 3.3403 7.3445 6.0336 1.798 2.6934 2.756 5.8593 2.754 9.0974-.005 4.3391-1.732 8.4987-4.8011 11.566-3.0691 3.0672-7.2298 4.7914-11.5689 4.794zm0-31.23c-2.941 0-5.816.8721-8.2613 2.5061-2.4454 1.6339-4.3513 3.9563-5.4768 6.6734-1.1255 2.7172-1.4199 5.707-.8462 8.5915.5738 2.8845 1.99 5.5341 4.0696 7.6137s4.7292 3.4958 7.6137 4.0696 5.8744.2793 8.5915-.8462 5.0395-3.0314 6.6735-5.4768c1.634-2.4453 2.506-5.3203 2.506-8.2613-.003-3.9429-1.57-7.7236-4.3582-10.5117-2.7881-2.7881-6.5688-4.3556-10.5118-4.3583z" fill="#ed6a5e"/><path d="m86.2496 57.8801c-.7797-.0926-1.5007-.461-2.0325-1.0387-.5319-.5777-.8396-1.3265-.8675-2.1113.0101-.0763.0101-.1536 0-.23h1.26c-.0271.3124.0142.627.1209.9218s.2764.5629.4971.7856c.2208.2226.4874.3946.7813.5038.2939.1093.6081.1532.9207.1288.3001.0217.6014-.0223.8827-.1289.2814-.1066.5362-.2733.7465-.4884.2104-.2152.3714-.4736.4717-.7573s.1375-.5858.1091-.8854c0-1.78-1.58-2.17-2.38-2.38s-3-.74-3.05-3.11c-.0308-.7373.2113-1.46.6799-2.0301.4686-.57 1.1308-.9474 1.8601-1.0599v-1.41h1.26v1.41c.7733.0849 1.4867.4564 1.9994 1.0414.5128.585.7878 1.3409.7706 2.1186h-1.28c.0089-.278-.0404-.5549-.1446-.8128-.1042-.258-.2611-.4913-.4606-.6852s-.4373-.344-.6981-.4408c-.2609-.0967-.539-.138-.8167-.1212-.2636-.0137-.527.0291-.7726.1256-.2457.0965-.4678.2444-.6516.4338-.1838.1895-.3248.416-.4138.6645s-.1237.5131-.102.7761c.07 1.41 1.18 1.74 2.21 2 .83.22 3.23.85 3.23 3.48.0152.811-.2725 1.5986-.8069 2.2088s-1.2772.9993-2.0831 1.0912v1.68h-1.24z" fill="#ed6a5e"/></svg>

<svg width="107" height="72" viewBox="0 0 107 72" fill="none" xmlns="http://www.w3.org/2000/svg">
<path d="M47.06 5.11011H0.75C0.551088 5.11011 0.360322 5.03109 0.21967 4.89044C0.0790176 4.74978 0 4.55902 0 4.36011C0 4.16119 0.0790176 3.97043 0.21967 3.82978C0.360322 3.68912 0.551088 3.61011 0.75 3.61011H47.06C47.2589 3.61011 47.4497 3.68912 47.5903 3.82978C47.731 3.97043 47.81 4.16119 47.81 4.36011C47.81 4.55902 47.731 4.74978 47.5903 4.89044C47.4497 5.03109 47.2589 5.11011 47.06 5.11011Z" fill="#ED6A5E"/>
<path d="M33.26 17.1201H9C8.80109 17.1201 8.61032 17.0411 8.46967 16.9004C8.32902 16.7598 8.25 16.569 8.25 16.3701C8.25 16.1712 8.32902 15.9804 8.46967 15.8398C8.61032 15.6991 8.80109 15.6201 9 15.6201H33.26C33.4589 15.6201 33.6497 15.6991 33.7903 15.8398C33.931 15.9804 34.01 16.1712 34.01 16.3701C34.01 16.569 33.931 16.7598 33.7903 16.9004C33.6497 17.0411 33.4589 17.1201 33.26 17.1201Z" fill="#ED6A5E"/>
<path d="M29.5797 29.1299H17.2197C17.0208 29.1299 16.8301 29.0509 16.6894 28.9102C16.5487 28.7696 16.4697 28.5788 16.4697 28.3799C16.4697 28.181 16.5487 27.9902 16.6894 27.8496C16.8301 27.7089 17.0208 27.6299 17.2197 27.6299H29.5797C29.7786 27.6299 29.9694 27.7089 30.1101 27.8496C30.2507 27.9902 30.3297 28.181 30.3297 28.3799C30.3297 28.5788 30.2507 28.7696 30.1101 28.9102C29.9694 29.0509 29.7786 29.1299 29.5797 29.1299Z" fill="#ED6A5E"/>
<path d="M72.1598 32.2601L58.6798 32.1501L52.0898 20.8601C51.9985 20.6895 51.9766 20.4901 52.0288 20.3038C52.0809 20.1174 52.2031 19.9584 52.3698 19.8601C52.5387 19.7653 52.738 19.7405 52.9249 19.7909C53.1119 19.8414 53.2716 19.9632 53.3698 20.1301L59.5198 30.6801L72.1398 30.7801C72.3387 30.7801 72.5295 30.8591 72.6702 30.9997C72.8108 31.1404 72.8898 31.3312 72.8898 31.5301C72.8898 31.729 72.8108 31.9198 72.6702 32.0604C72.5295 32.2011 72.3387 32.2801 72.1398 32.2801L72.1598 32.2601Z" fill="#BAD8DB"/>
<path d="M68.1998 58.89C62.3942 60.7848 56.1377 60.7925 50.3275 58.912C44.5173 57.0315 39.4518 53.3594 35.8575 48.4222C32.2631 43.485 30.3246 37.5364 30.3198 31.4295C30.315 25.3225 32.2442 19.3709 35.8308 14.4281C39.4174 9.48527 44.4771 5.80519 50.2844 3.91556C56.0916 2.02593 62.3481 2.02383 68.1567 3.90955C73.9652 5.79527 79.0274 9.47195 82.6173 14.4123C86.2072 19.3527 88.1404 25.3031 88.1398 31.41V32.24C88.6498 32.24 89.1398 32.32 89.6398 32.39C89.6398 32.06 89.6398 31.74 89.6398 31.39C89.6418 24.9544 87.6042 18.6837 83.8194 13.4786C80.0347 8.27354 74.6976 4.40191 68.5748 2.41984C62.452 0.437763 55.8586 0.447236 49.7415 2.4469C43.6245 4.44655 38.2985 8.3335 34.5288 13.5494C30.759 18.7654 28.7394 25.0419 28.7599 31.4775C28.7805 37.9131 30.8402 44.1765 34.6433 49.3683C38.4463 54.56 43.7969 58.4128 49.9267 60.3733C56.0564 62.3339 62.6498 62.3012 68.7598 60.28C68.5598 59.82 68.3698 59.36 68.1998 58.89Z" fill="#BAD8DB"/>
<path d="M59.2302 7.79004C55.7912 7.78821 52.3932 8.53738 49.2738 9.9852C46.1544 11.4331 43.3887 13.5446 41.1701 16.1723C38.9515 18.8 37.3335 21.8805 36.4291 25.1985C35.5247 28.5165 35.3557 31.9919 35.934 35.382C36.5123 38.7721 37.8239 41.995 39.7772 44.8255C41.7305 47.656 44.2783 50.0258 47.2425 51.7694C50.2068 53.5129 53.5161 54.5882 56.9391 54.9199C60.3621 55.2517 63.8163 54.8319 67.0602 53.6901C67.0602 53.1701 66.9802 52.6901 66.9802 52.1201C64.5028 53.0517 61.877 53.526 59.2302 53.5201C54.8549 53.5201 50.5778 52.2225 46.94 49.7915C43.3021 47.3605 40.467 43.9052 38.7931 39.8627C37.1191 35.8202 36.6817 31.3721 37.536 27.081C38.3903 22.7899 40.498 18.8485 43.5926 15.7553C46.6871 12.6622 50.6294 10.5562 54.921 9.70385C59.2125 8.85148 63.6604 9.29095 67.7021 10.9667C71.7438 12.6425 75.1978 15.4792 77.6272 19.1181C80.0566 22.7571 81.3522 27.0347 81.3502 31.4101C81.3502 31.9401 81.3502 32.4701 81.2902 32.9901C81.7902 32.8401 82.2902 32.7001 82.8202 32.5901C82.8202 32.2001 82.8202 31.8101 82.8202 31.4101C82.8123 25.1533 80.3254 19.1546 75.9039 14.7276C71.4825 10.3005 65.487 7.80591 59.2302 7.79004Z" fill="#BAD8DB"/>
<path d="M86.87 68.44C83.6319 68.44 80.4665 67.4797 77.7743 65.6805C75.082 63.8813 72.9839 61.324 71.7451 58.3322C70.5064 55.3404 70.1828 52.0485 70.8153 48.8727C71.4477 45.697 73.0078 42.7801 75.2982 40.4911C77.5886 38.2022 80.5064 36.6439 83.6825 36.0133C86.8586 35.3828 90.1504 35.7084 93.1415 36.949C96.1325 38.1895 98.6885 40.2893 100.486 42.9826C102.284 45.676 103.242 48.8419 103.24 52.08C103.235 56.4191 101.508 60.5787 98.4389 63.646C95.3698 66.7132 91.2091 68.4374 86.87 68.44ZM86.87 37.21C83.929 37.21 81.054 38.0821 78.6087 39.7161C76.1633 41.35 74.2574 43.6724 73.1319 46.3895C72.0064 49.1067 71.712 52.0965 72.2857 54.981C72.8595 57.8655 74.2757 60.5151 76.3553 62.5947C78.4349 64.6743 81.0845 66.0905 83.969 66.6643C86.8535 67.2381 89.8434 66.9436 92.5605 65.8181C95.2776 64.6926 97.6 62.7867 99.234 60.3413C100.868 57.896 101.74 55.021 101.74 52.08C101.737 48.1371 100.17 44.3564 97.3818 41.5683C94.5937 38.7802 90.813 37.2127 86.87 37.21Z" fill="#ED6A5E"/>
<path d="M86.87 68.44C83.6319 68.44 80.4665 67.4797 77.7743 65.6805C75.082 63.8813 72.9839 61.324 71.7451 58.3322C70.5064 55.3404 70.1828 52.0485 70.8153 48.8727C71.4477 45.697 73.0078 42.7801 75.2982 40.4911C77.5886 38.2022 80.5064 36.6439 83.6825 36.0133C86.8586 35.3828 90.1504 35.7084 93.1415 36.949C96.1325 38.1895 98.6885 40.2893 100.486 42.9826C102.284 45.676 103.242 48.8419 103.24 52.08C103.235 56.4191 101.508 60.5787 98.4389 63.646C95.3698 66.7132 91.2091 68.4374 86.87 68.44ZM86.87 37.21C83.929 37.21 81.054 38.0821 78.6087 39.7161C76.1633 41.35 74.2574 43.6724 73.1319 46.3895C72.0064 49.1067 71.712 52.0965 72.2857 54.981C72.8595 57.8655 74.2757 60.5151 76.3553 62.5947C78.4349 64.6743 81.0845 66.0905 83.969 66.6643C86.8535 67.2381 89.8434 66.9436 92.5605 65.8181C95.2776 64.6926 97.6 62.7867 99.234 60.3413C100.868 57.896 101.74 55.021 101.74 52.08C101.737 48.1371 100.17 44.3564 97.3818 41.5683C94.5937 38.7802 90.813 37.2127 86.87 37.21Z" fill="#ED6A5E"/>
<path d="M86.2496 57.8801C85.4699 57.7875 84.7489 57.4191 84.2171 56.8414C83.6852 56.2637 83.3775 55.5149 83.3496 54.7301C83.3597 54.6538 83.3597 54.5765 83.3496 54.5001H84.6096C84.5825 54.8125 84.6238 55.1271 84.7305 55.4219C84.8372 55.7167 85.0069 55.9848 85.2276 56.2075C85.4484 56.4301 85.715 56.6021 86.0089 56.7113C86.3028 56.8206 86.617 56.8645 86.9296 56.8401C87.2297 56.8618 87.531 56.8178 87.8123 56.7112C88.0937 56.6046 88.3485 56.4379 88.5588 56.2228C88.7692 56.0076 88.9302 55.7492 89.0305 55.4655C89.1308 55.1818 89.168 54.8797 89.1396 54.5801C89.1396 52.8001 87.5596 52.4101 86.7596 52.2001C85.9596 51.9901 83.7596 51.4601 83.7096 49.0901C83.6788 48.3528 83.9209 47.6301 84.3895 47.06C84.8581 46.49 85.5203 46.1126 86.2496 46.0001V44.5901H87.5096V46.0001C88.2829 46.085 88.9963 46.4565 89.509 47.0415C90.0218 47.6265 90.2968 48.3824 90.2796 49.1601H88.9996C89.0085 48.8821 88.9592 48.6052 88.855 48.3473C88.7508 48.0893 88.5939 47.856 88.3944 47.6621C88.1949 47.4682 87.9571 47.3181 87.6963 47.2213C87.4354 47.1246 87.1573 47.0833 86.8796 47.1001C86.616 47.0864 86.3526 47.1292 86.107 47.2257C85.8613 47.3222 85.6392 47.4701 85.4554 47.6595C85.2716 47.849 85.1306 48.0755 85.0416 48.324C84.9526 48.5725 84.9179 48.8371 84.9396 49.1001C85.0096 50.5101 86.1196 50.8401 87.1496 51.1001C87.9796 51.3201 90.3796 51.9501 90.3796 54.5801C90.3948 55.3911 90.1071 56.1787 89.5727 56.7889C89.0383 57.3991 88.2955 57.7882 87.4896 57.8801V59.5601H86.2496V57.8801Z" fill="#ED6A5E"/>
</svg>
